modules/stroke-7/icons/notebook.svg

<?xml version="1.0" encoding="utf-8"?>
<!-- Generated by IcoMoon.io -->
<!DOCTYPE svg PUBLIC "-//W3C//DTD SVG 1.1//EN" "http://www.w3.org/Graphics/SVG/1.1/DTD/svg11.dtd">
<svg version="1.1" xmlns="http://www.w3.org/2000/svg" xmlns:xlink="http://www.w3.org/1999/xlink" width="32" height="32" viewBox="0 0 32 32">
<g id="icomoon-ignore">
</g>
<path d="M16 3.205h-8.53c-2.551 0-4.265 1.714-4.265 4.265v17.733c0 0.842 0.314 3.592 4.357 3.592h21.233v-25.59h-12.795zM14.934 4.271v10.2l-2.611-2.378-2.899 2.44v-10.261h5.511zM7.47 4.271h0.887v12.552l3.938-3.313 3.706 3.374v-12.613h11.729v17.593h-20.259c-1.357 0-2.457 0.405-3.199 1.113v-15.508c0-1.943 1.256-3.199 3.199-3.199zM7.562 27.729c-2.444 0-3.151-1.109-3.269-2.17 0.002-1.646 1.189-2.628 3.177-2.628h20.259v4.798h-20.167z" fill="#000000"></path>
</svg>

<svg xmlns="http://www.w3.org/2000/svg" width="32" height="32" viewBox="0 0 32 32"><path d="M16 3.205H7.47c-2.551 0-4.265 1.714-4.265 4.265v17.733c0 .842.314 3.592 4.357 3.592h21.233V3.205H16zm-1.066 1.066v10.2l-2.611-2.378-2.899 2.44V4.272h5.511zm-7.464 0h.887v12.552l3.938-3.313 3.706 3.374V4.271H27.73v17.593H7.471c-1.357 0-2.457.405-3.199 1.113V7.469c0-1.943 1.256-3.199 3.199-3.199zm.092 23.458c-2.444 0-3.151-1.109-3.269-2.17.002-1.646 1.189-2.628 3.177-2.628h20.259v4.798H7.562z"/></svg>
